X:372
T:Lady's Pantalettes, The
T:Duke of Leinster's Wife, The
R:reel
D:Planxty
Z:id:hn-reel-372
M:C|
K:G
BdcA ~G3B|AF~F2 cFAF|BdcA G2ge|1 fdcA dBcA:|2 fdcA AG~G2||
|:fgaf g2fg|~a3g fdde|1 fgaf g2ag|fdcA AG~G2:|2 ~f3g ~a3g|fdcA dBcA||
